X:0687
T:Miss Hay's Favourite.
M:C
L:1/8
Q:1/2=104
I: :| ||
Z:Jack Campin * www.campin.me.uk * 2009
K:G
B   |d/c/B/A/ GB dBgB|ceBd eAAB    |d/c/B/A/ GB cege|dcBA G/G/G G   :|
g/a/|bgaf        gedB|ceBd eAA g/a/|bgaf        gdeg|dcBA G/G/G Gg/a/|
     bgaf        gedB|ceBd eAAc    |BGcA        dBge|dBcA G/G/G z   |]
<end>
<start>
